app/images/icons/new.svg

<svg fill="none" height="10" viewBox="0 0 10 10" width="10" xmlns="http://www.w3.org/2000/svg"><path clip-rule="evenodd" d="m1.76923 4.2003c-.44183 0-.799999.35817-.799999.8s.358169.8.799999.8h2.43125v2.43047c0 .44183.35817.8.8.8s.8-.35817.8-.8v-2.43047h2.43029c.44183 0 .8-.35817.8-.8s-.35817-.8-.8-.8h-2.43029v-2.43107c0-.44183-.35817-.800001-.8-.800001s-.8.358171-.8.800001v2.43107z" fill="#f9fbff" fill-rule="evenodd"/></svg>

<svg width="10" height="10" viewBox="0 0 10 10" fill="none" xmlns="http://www.w3.org/2000/svg">
<path fill-rule="evenodd" clip-rule="evenodd" d="M1.76923 4.2003C1.3274 4.2003 0.969231 4.55847 0.969231 5.0003C0.969231 5.44213 1.3274 5.8003 1.76923 5.8003H4.20048V8.23077C4.20048 8.6726 4.55865 9.03077 5.00048 9.03077C5.44231 9.03077 5.80048 8.6726 5.80048 8.23077V5.8003H8.23077C8.6726 5.8003 9.03077 5.44213 9.03077 5.0003C9.03077 4.55847 8.6726 4.2003 8.23077 4.2003L5.80048 4.2003L5.80048 1.76923C5.80048 1.3274 5.44231 0.969229 5.00048 0.969229C4.55865 0.969229 4.20048 1.3274 4.20048 1.76923V4.2003H1.76923Z" fill="#F9FBFF"/>
</svg>
